X:205
T:Calliope House
C:Joe Buchanan's Scottish Tome - Page 281.1
I:281 1
Z:Carl Allison
C:Dave Richardson
R:Jig
L:1/8
M:4/4
K:E
B | "E"eBB gBB | "E"fBB gBB | "F#m"cff (f2 e) | "F#m"fge cec |
"E"BcB (B2 G) | "E/G#"(B2 c) "A"(e2 f) | "E"(g2 b) "C#m"(gfe) | "B7"f3- f2 B |
"E"eBB gBB | "E"eBB gBB | "F#m"cff (f2 e) | "F#m"fgf "A"cec |
"E"BcB (B2 G) | "E/G#"(B2 c) (e2 f) | "E"gbg "B7"fec | "E"e3- e2 g |]
"E"b3 gbb | "B7"fbb "E"gbb | "F#m"a3 "C#m"gag | "F#m"fge "A"cec |
"E"BcB (B2 G) | "E/G#"(B2 c) "A"(e2 f) | "E"(g2 b) "C#m"(gfe) | "B7"(f3 f)(ga) |
"E"b3 gbb | "B7"fbb "C"gbb | "F#m"a3 "C#m"gag | "F#m"fge "A"cec |
"E"BcB (B2 G) | "E/G#"(B2 c) "A"(e2 f) | "E"gbg "A"fec | "E"e3- e2 |]

